X: 38427
T: Star, The
R: jig
M: 6/8
K: Gmajor
|:e|dBG G2B|def g2e|dBG GAB|cAB c2e|
dBG G2B|def g2a|bfa g2B|A2B c2:|
|:e|dBB gdB|def g2e|dBB gdB|cAB c2e|
dBB gdB|def g2a|bfa g2B|A2B c2:|

